evolvere-2-blue-mono/apps/24/vivaldi.svg

<?xml version="1.0" encoding="UTF-8" standalone="no"?>
<!-- Created with Inkscape (http://www.inkscape.org/) -->

<svg
   xmlns:dc="http://purl.org/dc/elements/1.1/"
   xmlns:cc="http://creativecommons.org/ns#"
   xmlns:rdf="http://www.w3.org/1999/02/22-rdf-syntax-ns#"
   xmlns:svg="http://www.w3.org/2000/svg"
   xmlns="http://www.w3.org/2000/svg"
   xmlns:sodipodi="http://sodipodi.sourceforge.net/DTD/sodipodi-0.dtd"
   xmlns:inkscape="http://www.inkscape.org/namespaces/inkscape"
   version="1.1"
   width="24"
   height="24"
   id="svg2"
   inkscape:version="0.48.4 r9939"
   sodipodi:docname="vivaldi.svg">
  <sodipodi:namedview
     pagecolor="#ffffff"
     bordercolor="#666666"
     borderopacity="1"
     objecttolerance="10"
     gridtolerance="10"
     guidetolerance="10"
     inkscape:pageopacity="0"
     inkscape:pageshadow="2"
     inkscape:window-width="1920"
     inkscape:window-height="1025"
     id="namedview6"
     showgrid="true"
     inkscape:zoom="29.5"
     inkscape:cx="17.802666"
     inkscape:cy="11.257364"
     inkscape:window-x="-2"
     inkscape:window-y="32"
     inkscape:window-maximized="1"
     inkscape:current-layer="svg2"
     inkscape:snap-global="true"
     inkscape:snap-bbox="true"
     inkscape:bbox-paths="true"
     inkscape:bbox-nodes="true"
     inkscape:snap-bbox-edge-midpoints="true"
     inkscape:snap-bbox-midpoints="true"
     inkscape:snap-nodes="true"
     inkscape:object-paths="true"
     inkscape:snap-intersection-paths="true"
     inkscape:object-nodes="true"
     inkscape:snap-smooth-nodes="true"
     inkscape:snap-midpoints="true"
     inkscape:snap-object-midpoints="true"
     inkscape:snap-center="true">
    <inkscape:grid
       type="xygrid"
       id="grid2982"
       empspacing="5"
       visible="true"
       enabled="true"
       snapvisiblegridlinesonly="true" />
  </sodipodi:namedview>
  <defs
     id="defs4" />
  <metadata
     id="metadata7">
    <rdf:RDF>
      <cc:Work
         rdf:about="">
        <dc:format>image/svg+xml</dc:format>
        <dc:type
           rdf:resource="http://purl.org/dc/dcmitype/StillImage" />
        <dc:title />
      </cc:Work>
    </rdf:RDF>
  </metadata>
  <path
     style="color:#000000;fill:#27303a;fill-opacity:0.753280819999999968;fill-rule:nonzero;stroke:none;stroke-width:1;marker:none;visibility:visible;display:inline;overflow:visible;enable-background:accumulate"
     d="M 5.3082713,4 C 3.6737715,3.9773224 2.5131727,5.6951404 3.2027409,7.1614157 c 0.036918,0.078513 2.0149899,3.5410103 2.2794296,3.9898933 0.034235,0.05811 0.082466,0.143758 0.1070159,0.190844 0.024552,0.04711 0.067981,0.124139 0.097204,0.171226 0.073742,0.11882 0.077326,0.124704 1.1316893,1.952138 0.517955,0.897728 0.9699259,1.680018 1.0041621,1.738111 0.034235,0.05809 0.082493,0.143758 0.1070148,0.190845 0.024526,0.04711 0.076323,0.13698 0.1159336,0.199761 0.039611,0.06278 0.085435,0.139834 0.1016641,0.171227 0.016234,0.0314 0.058236,0.104245 0.092747,0.162306 0.034509,0.05806 0.2422115,0.415401 0.4619501,0.793697 0.2197386,0.378299 0.427216,0.735642 0.4610581,0.793699 0.033843,0.05806 0.080107,0.137336 0.1025573,0.176576 0.022448,0.03925 0.070496,0.122711 0.1070147,0.185494 0.036514,0.06278 0.084564,0.146256 0.1070148,0.185493 0.022446,0.03924 0.068713,0.118499 0.1025562,0.176574 0.033843,0.05807 0.1568798,0.269966 0.2737817,0.470871 0.7213718,1.239703 1.3619648,1.600336 2.5514288,1.434898 0.426634,-0.05933 0.840366,-0.274321 1.176278,-0.610881 0.236053,-0.236508 0.35297,-0.409732 0.770512,-1.13793 0.124398,-0.216959 0.246751,-0.428848 0.271997,-0.47087 0.02525,-0.04203 0.07341,-0.124849 0.107005,-0.183709 0.03363,-0.05886 0.08911,-0.155172 0.123066,-0.214031 0.03396,-0.05886 0.08009,-0.139119 0.102555,-0.178357 0.02246,-0.03925 0.06872,-0.119133 0.102555,-0.177469 0.03385,-0.05834 0.562367,-0.973442 1.174493,-2.033295 0.61213,-1.05985 1.138647,-1.970936 1.170036,-2.025268 1.24689,-2.158121 2.180138,-3.776436 2.219694,-3.8480982 0.02798,-0.050713 0.07936,-0.1399056 0.114149,-0.1988691 0.273015,-0.4627838 0.956992,-1.6544953 1.017539,-1.7728909 0.518134,-1.0131076 0.181983,-2.3012687 -0.758906,-2.909929 -1.932175,-1.2499174 -4.258217,0.7776143 -3.285376,2.863556 1.194382,2.5609595 -0.411167,5.2067252 -3.159633,5.2063022 -1.562513,-2.27e-4 -2.403166,-0.556187 -3.36742,-2.225029 C 10.15411,10.173972 9.6861408,9.3621403 9.1456672,8.4241981 8.0181575,6.4675075 7.6962822,5.9105151 7.619805,5.7826994 7.5899089,5.7327321 7.5508369,5.6660528 7.5333005,5.6346611 6.8678038,4.4433477 6.3489496,4.0484316 5.3867497,4.0026751 c -0.026178,-0.00123 -0.052535,-0.0023 -0.078479,-0.00267 z"
     id="path2995"
     inkscape:connector-curvature="0" />
  <path
     style="font-size:medium;font-style:normal;font-variant:normal;font-weight:normal;font-stretch:normal;text-indent:0;text-align:start;text-decoration:none;line-height:normal;letter-spacing:normal;word-spacing:normal;text-transform:none;direction:ltr;block-progression:tb;writing-mode:lr-tb;text-anchor:start;baseline-shift:baseline;color:#000000;fill:#f1f3f5;fill-opacity:0.90288714000000003;fill-rule:nonzero;stroke:none;stroke-width:2;marker:none;visibility:visible;display:inline;overflow:visible;enable-background:accumulate;font-family:Sans;-inkscape-font-specification:Sans"
     d="M 5.3125 2.90625 C 2.9002854 2.8727821 1.186089 5.4291833 2.21875 7.625 C 2.292247 7.7813057 2.262833 7.716919 2.28125 7.75 C 2.299667 7.783081 2.31413 7.822489 2.34375 7.875 C 2.402989 7.9800218 2.4960386 8.1405919 2.59375 8.3125 C 2.7891727 8.6563162 3.046113 9.0962124 3.3125 9.5625 C 3.845274 10.495075 4.3800374 11.462069 4.53125 11.71875 C 4.554891 11.75888 4.620692 11.835487 4.625 11.84375 C 4.668133 11.92651 4.694829 12.004853 4.75 12.09375 C 4.823583 12.212314 4.820665 12.17262 5.875 14 C 6.3931447 14.898057 6.7976677 15.61878 6.875 15.75 C 6.898627 15.79009 6.96485 15.898761 6.96875 15.90625 C 7.021608 16.00778 7.063522 16.09006 7.125 16.1875 C 7.152158 16.23054 7.190725 16.347937 7.15625 16.28125 C 7.209221 16.383708 7.240556 16.431538 7.28125 16.5 C 7.293396 16.52043 7.5303603 16.903124 7.75 17.28125 C 7.969674 17.659438 8.1810052 17.997748 8.21875 18.0625 C 8.252851 18.121 8.296398 18.221856 8.3125 18.25 C 8.337148 18.2931 8.367544 18.370957 8.40625 18.4375 C 8.440565 18.4965 8.5108014 18.558012 8.53125 18.59375 C 8.560194 18.64435 8.591531 18.723817 8.625 18.78125 C 8.656681 18.83561 8.7889908 19.048481 8.90625 19.25 C 9.3148033 19.952113 9.7534661 20.539055 10.40625 20.90625 C 11.059034 21.273445 11.833061 21.351455 12.5625 21.25 C 13.252115 21.1541 13.885519 20.802925 14.375 20.3125 C 14.672473 20.014453 14.888326 19.677264 15.3125 18.9375 C 15.435807 18.722443 15.569914 18.487659 15.5625 18.5 C 15.59828 18.44045 15.64976 18.347375 15.6875 18.28125 C 15.71903 18.22607 15.77893 18.120689 15.8125 18.0625 C 15.84728 18.00221 15.88253 17.947677 15.90625 17.90625 C 15.92488 17.8737 15.96651 17.776498 16 17.71875 C 16.04538 17.64054 16.575376 16.74735 17.1875 15.6875 C 17.79955 14.627788 18.311556 13.711976 18.34375 13.65625 C 18.967307 12.576995 19.511936 11.652391 19.90625 10.96875 C 20.300564 10.285109 20.498217 9.9543238 20.59375 9.78125 C 20.61011 9.751596 20.65855 9.6740756 20.6875 9.625 C 20.8297 9.3839584 21.067189 8.9667151 21.28125 8.59375 C 21.495311 8.2207849 21.636408 8.0033722 21.75 7.78125 C 22.528074 6.2598809 22.028607 4.3969578 20.59375 3.46875 C 19.230889 2.5871199 17.561183 2.8522782 16.53125 3.75 C 15.501317 4.6477218 15.032681 6.2476979 15.71875 7.71875 C 16.174805 8.696609 16.057231 9.589264 15.65625 10.25 C 15.255269 10.910736 14.583734 11.343907 13.5625 11.34375 C 12.911679 11.343655 12.56715 11.272095 12.25 11.0625 C 11.93285 10.852905 11.564322 10.447839 11.125 9.6875 C 11.09964 9.6436174 10.634175 8.8128584 10.09375 7.875 C 8.9661114 5.9180856 8.6636966 5.387879 8.5625 5.21875 C 8.5371712 5.1764164 8.5017085 5.0968084 8.5 5.09375 C 8.1331318 4.437015 7.77344 3.8980489 7.25 3.5 C 6.72656 3.1019511 6.0592115 2.9358149 5.4375 2.90625 C 5.40662 2.9048 5.358058 2.9068997 5.3125 2.90625 z M 5.3125 4 C 5.338444 4.00037 5.348822 3.99877 5.375 4 C 6.3371999 4.0457565 6.8657533 4.4336866 7.53125 5.625 C 7.5487864 5.6563917 7.5951039 5.7312827 7.625 5.78125 C 7.7014772 5.9090657 8.0287403 6.4808094 9.15625 8.4375 C 9.6967236 9.3754422 10.156103 10.164421 10.1875 10.21875 C 11.151754 11.887592 11.999987 12.468523 13.5625 12.46875 C 16.310966 12.469173 17.913132 9.8109595 16.71875 7.25 C 15.745909 5.1640583 18.067825 3.1250826 20 4.375 C 20.940889 4.9836603 21.268134 6.2681424 20.75 7.28125 C 20.689453 7.3996456 20.023015 8.5997162 19.75 9.0625 C 19.715211 9.1214635 19.65298 9.199287 19.625 9.25 C 19.585444 9.3216622 18.65314 10.966879 17.40625 13.125 C 17.374861 13.179332 16.86213 14.06515 16.25 15.125 C 15.637874 16.184853 15.09635 17.09791 15.0625 17.15625 C 15.028665 17.214586 14.99121 17.3045 14.96875 17.34375 C 14.946285 17.382988 14.87771 17.47239 14.84375 17.53125 C 14.809794 17.590109 14.75238 17.69114 14.71875 17.75 C 14.685155 17.80886 14.65025 17.89547 14.625 17.9375 C 14.599754 17.979522 14.468148 18.189291 14.34375 18.40625 C 13.926208 19.134448 13.829803 19.294742 13.59375 19.53125 C 13.257838 19.86781 12.832884 20.09692 12.40625 20.15625 C 11.216786 20.321688 10.565122 19.958453 9.84375 18.71875 C 9.7268481 18.517845 9.627593 18.30807 9.59375 18.25 C 9.5599068 18.191925 9.491196 18.10174 9.46875 18.0625 C 9.4462992 18.023263 9.411514 17.93778 9.375 17.875 C 9.3384813 17.812217 9.272448 17.72675 9.25 17.6875 C 9.2275497 17.64826 9.190093 17.55806 9.15625 17.5 C 9.1224079 17.441943 8.9072386 17.097049 8.6875 16.71875 C 8.4677614 16.340454 8.284509 15.99556 8.25 15.9375 C 8.215489 15.879439 8.172484 15.7814 8.15625 15.75 C 8.1400209 15.718607 8.070861 15.65653 8.03125 15.59375 C 7.9916394 15.530969 7.962026 15.45336 7.9375 15.40625 C 7.9129782 15.359163 7.846735 15.27684 7.8125 15.21875 C 7.7782638 15.160657 7.330455 14.366478 6.8125 13.46875 C 5.7581367 11.641316 5.761242 11.61882 5.6875 11.5 C 5.658277 11.452913 5.618302 11.39086 5.59375 11.34375 C 5.5692001 11.296664 5.502985 11.21436 5.46875 11.15625 C 5.2043103 10.707367 3.224418 7.234763 3.1875 7.15625 C 2.4979318 5.6899747 3.6780002 3.9773224 5.3125 4 z "
     id="path3019" />
</svg>

<?xml version="1.0" encoding="UTF-8"?>
<!-- Created with Inkscape (http://www.inkscape.org/) -->
<svg width="24" height="24" version="1.1" xmlns="http://www.w3.org/2000/svg" xmlns:cc="http://creativecommons.org/ns#" xmlns:dc="http://purl.org/dc/elements/1.1/" xmlns:rdf="http://www.w3.org/1999/02/22-rdf-syntax-ns#">
	<metadata>
		<rdf:RDF>
			<cc:Work rdf:about="">
				<dc:format>image/svg+xml</dc:format>
				<dc:type rdf:resource="http://purl.org/dc/dcmitype/StillImage"/>
			</cc:Work>
		</rdf:RDF>
	</metadata>
	<defs>
		<style id="current-color-scheme" type="text/css">
			.ColorScheme-Background{color:#ffffff;}
			.ColorScheme-Text{color:#090d11;}
		</style>
	</defs>
	<path class="ColorScheme-Text" style="fill-opacity:.75;fill:currentColor" d="m5.3083 4c-1.6345-0.022678-2.7951 1.6951-2.1055 3.1614 0.036918 0.078513 2.015 3.541 2.2794 3.9899 0.034235 0.05811 0.082466 0.14376 0.10702 0.19084 0.024552 0.04711 0.067981 0.12414 0.097204 0.17123 0.073742 0.11882 0.077326 0.1247 1.1317 1.9521 0.51796 0.89773 0.96993 1.68 1.0042 1.7381 0.034235 0.05809 0.082493 0.14376 0.10701 0.19084 0.024526 0.04711 0.076323 0.13698 0.11593 0.19976 0.039611 0.06278 0.085435 0.13983 0.10166 0.17123 0.016234 0.0314 0.058236 0.10424 0.092747 0.16231 0.034509 0.05806 0.24221 0.4154 0.46195 0.7937 0.21974 0.3783 0.42722 0.73564 0.46106 0.7937 0.033843 0.05806 0.080107 0.13734 0.10256 0.17658 0.022448 0.03925 0.070496 0.12271 0.10701 0.18549 0.036514 0.06278 0.084564 0.14626 0.10701 0.18549 0.022446 0.03924 0.068713 0.1185 0.10256 0.17657 0.033843 0.05807 0.15688 0.26997 0.27378 0.47087 0.72137 1.2397 1.362 1.6003 2.5514 1.4349 0.42663-0.05933 0.84037-0.27432 1.1763-0.61088 0.23605-0.23651 0.35297-0.40973 0.77051-1.1379 0.1244-0.21696 0.24675-0.42885 0.272-0.47087 0.02525-0.04203 0.07341-0.12485 0.107-0.18371 0.03363-0.05886 0.08911-0.15517 0.12307-0.21403 0.03396-0.05886 0.08009-0.13912 0.10256-0.17836 0.02246-0.03925 0.06872-0.11913 0.10256-0.17747 0.03385-0.05834 0.56237-0.97344 1.1745-2.0333 0.61213-1.0598 1.1386-1.9709 1.17-2.0253 1.2469-2.1581 2.1801-3.7764 2.2197-3.8481 0.02798-0.050713 0.07936-0.13991 0.11415-0.19887 0.27302-0.46278 0.95699-1.6545 1.0175-1.7729 0.51813-1.0131 0.18198-2.3013-0.75891-2.9099-1.9322-1.2499-4.2582 0.77761-3.2854 2.8636 1.1944 2.561-0.41117 5.2067-3.1596 5.2063-1.5625-2.27e-4 -2.4032-0.55619-3.3674-2.225-0.031397-0.054329-0.49937-0.86616-1.0398-1.8041-1.1275-1.9567-1.4494-2.5137-1.5259-2.6415-0.029896-0.049967-0.068968-0.11665-0.086504-0.14804-0.6655-1.1913-1.1844-1.5862-2.1466-1.632-0.026178-0.00123-0.052535-0.0023-0.078479-0.00267z"/>
	<path d="m5.3125 2.9062c-2.4122-0.033468-4.1264 2.5229-3.0938 4.7188 0.073497 0.15631 0.044083 0.091919 0.0625 0.125s0.03288 0.072489 0.0625 0.125c0.059239 0.10502 0.15229 0.26559 0.25 0.4375 0.19542 0.34382 0.45236 0.78371 0.71875 1.25 0.53277 0.93258 1.0675 1.8996 1.2188 2.1562 0.023641 0.04013 0.089442 0.11674 0.09375 0.125 0.043133 0.08276 0.069829 0.1611 0.125 0.25 0.073583 0.11856 0.070665 0.07887 1.125 1.9062 0.51814 0.89806 0.92267 1.6188 1 1.75 0.023627 0.04009 0.08985 0.14876 0.09375 0.15625 0.052858 0.10153 0.094772 0.18381 0.15625 0.28125 0.027158 0.04304 0.065725 0.16044 0.03125 0.09375 0.052971 0.10246 0.084306 0.15029 0.125 0.21875 0.012146 0.02043 0.24911 0.40312 0.46875 0.78125 0.21967 0.37819 0.43101 0.7165 0.46875 0.78125 0.034101 0.0585 0.077648 0.15936 0.09375 0.1875 0.024648 0.0431 0.055044 0.12096 0.09375 0.1875 0.034315 0.059 0.10455 0.12051 0.125 0.15625 0.028944 0.0506 0.060281 0.13007 0.09375 0.1875 0.031681 0.05436 0.16399 0.26723 0.28125 0.46875 0.40855 0.70211 0.84722 1.2891 1.5 1.6562 0.65278 0.3672 1.4268 0.4452 2.1562 0.34375 0.68962-0.0959 1.323-0.44708 1.8125-0.9375 0.29747-0.29805 0.51333-0.63524 0.9375-1.375 0.12331-0.21506 0.25741-0.44984 0.25-0.4375 0.03578-0.05955 0.08726-0.15262 0.125-0.21875 0.03153-0.05518 0.09143-0.16056 0.125-0.21875 0.03478-0.06029 0.07003-0.11482 0.09375-0.15625 0.01863-0.03255 0.06026-0.12975 0.09375-0.1875 0.04538-0.07821 0.57538-0.9714 1.1875-2.0312 0.61205-1.0597 1.1241-1.9755 1.1562-2.0312 0.62356-1.0793 1.1682-2.0039 1.5625-2.6875s0.59197-1.0144 0.6875-1.1875c0.01636-0.029654 0.0648-0.10717 0.09375-0.15625 0.1422-0.24104 0.37969-0.65828 0.59375-1.0312s0.35516-0.59038 0.46875-0.8125c0.77807-1.5214 0.27861-3.3843-1.1562-4.3125-1.3629-0.88163-3.0326-0.61647-4.0625 0.28125s-1.4986 2.4977-0.8125 3.9688c0.45606 0.97786 0.33848 1.8705-0.0625 2.5312s-1.0725 1.0939-2.0938 1.0938c-0.65082-9.5e-5 -0.99535-0.071655-1.3125-0.28125s-0.68568-0.61466-1.125-1.375c-0.02536-0.043883-0.49082-0.87464-1.0312-1.8125-1.1276-1.9569-1.4301-2.4871-1.5312-2.6562-0.025329-0.042334-0.060792-0.12194-0.0625-0.125-0.36687-0.65674-0.72656-1.1957-1.25-1.5938s-1.1908-0.56419-1.8125-0.59375c-0.03088-0.00145-0.079442 6.497e-4 -0.125 0zm0 1.0938c0.025944 3.7e-4 0.036322-0.00123 0.0625 0 0.9622 0.045756 1.4908 0.43369 2.1562 1.625 0.017536 0.031392 0.063854 0.10628 0.09375 0.15625 0.076477 0.12782 0.40374 0.69956 1.5312 2.6562 0.54047 0.93794 0.99985 1.7269 1.0312 1.7812 0.96425 1.6688 1.8125 2.2498 3.375 2.25 2.7485 4.23e-4 4.3506-2.6578 3.1562-5.2188-0.97284-2.0859 1.3491-4.1249 3.2812-2.875 0.94089 0.60866 1.2681 1.8931 0.75 2.9062-0.060547 0.1184-0.72698 1.3185-1 1.7812-0.034789 0.058964-0.09702 0.13679-0.125 0.1875-0.039556 0.071662-0.97186 1.7169-2.2188 3.875-0.031389 0.054332-0.54412 0.94015-1.1562 2-0.61213 1.0599-1.1536 1.9729-1.1875 2.0312-0.033835 0.058336-0.07129 0.14825-0.09375 0.1875-0.022465 0.039238-0.09104 0.12864-0.125 0.1875-0.033956 0.058859-0.09137 0.15989-0.125 0.21875-0.033595 0.05886-0.0685 0.14547-0.09375 0.1875-0.025246 0.042022-0.15685 0.25179-0.28125 0.46875-0.41754 0.7282-0.51395 0.88849-0.75 1.125-0.33591 0.33656-0.76087 0.56567-1.1875 0.625-1.1895 0.16544-1.8411-0.1978-2.5625-1.4375-0.1169-0.2009-0.21616-0.41068-0.25-0.46875-0.033843-0.058075-0.10255-0.14826-0.125-0.1875-0.022451-0.039237-0.057236-0.12472-0.09375-0.1875-0.036519-0.062783-0.10255-0.14825-0.125-0.1875-0.02245-0.03924-0.059907-0.12944-0.09375-0.1875-0.033842-0.058057-0.24901-0.40295-0.46875-0.78125-0.21974-0.3783-0.40299-0.72319-0.4375-0.78125-0.034511-0.058061-0.077516-0.1561-0.09375-0.1875-0.016229-0.031393-0.085389-0.09347-0.125-0.15625-0.039611-0.062781-0.069224-0.14039-0.09375-0.1875-0.024522-0.047087-0.090765-0.12941-0.125-0.1875-0.034236-0.058093-0.48204-0.85227-1-1.75-1.0544-1.8274-1.0513-1.8499-1.125-1.9688-0.029223-0.047087-0.069198-0.10914-0.09375-0.15625-0.02455-0.047086-0.090765-0.12939-0.125-0.1875-0.26444-0.44888-2.2443-3.9215-2.2812-4-0.68957-1.4663 0.4905-3.1789 2.125-3.1562z" class="ColorScheme-Background" style="fill-opacity:.5;fill:currentColor"/>
</svg>
